X:14
T:Alex Hugh MacDonald
R:pipe jig
C:Brenda Stubbert, SOCAN
O:20th century Cape Breton
S:Tune of the Month, May 1999
A:<http://www.capebretonet.com/Music/Stubbert>
D:Some Tasty Tunes, Brenda Stubbert, 1999
N:Contacts ...
N:Recordings and bookings
N:..... <brenda@cranfordpub.com
N:Tune books and related recordings
N:..... Cranford Publications <http://www.cranfordpub.com>
H:Copyrights:Published by Stubbert Music
Z:This abc transcription is for personal use only,
Z:provided this notice remains attached.
Z:Used by permission of the composer and publisher.
Z:Paul Stewart Cranford <psc@cranfordpub.com>
Q:300
L:1/8
M:6/8
K:Ador
B|:AGE A2 B|edB deg|BAB G2 D|EGA BAG|!
AGE A2 B|edB deg|age edB|[1BAA A2 a:|[2BAA A2||!
|:B|ABA a2 f|gfe edB|BAB g2 e|fed edB|!
[1ABA a2 f|gfe edB|BAB gdB|BAA A2:|!
[2 AGE A/A/A B|edB deg|age edB|BAA A2|]!

